X:19
T:Wild Irishman, The
R:reel
D:Stockton's Wing.
Z:id:hn-reel-19
M:C|
K:D
d2fd gefe|dfed cdec|d2fd gefd|g2fe dcBc|
d2fd gefe|dfed cdeg|~f3d ~g3e|cdec dcdf||
edcB A2cA|eA~A2 eAfA|edcB ~A3e|fgfe dcdf|
edcB ABcd|eA~A2 eAfA|edcB ~A3e|fgfe d3c||
